!!!OTL: Winterrosen
!!!ARE: Europa, Mitteleuropa, Deutschland
!!!SCT: A0060
!!!YEM: Copyright 1995, estate of Helmut Schaffrath.
**kern
*ICvox
*Ivox
!! Mixed meters:  6/2; 4/2
*M6/2
*k[b-]
*F:
{2f
=1
2f
2f
2g
2g
=2
2a
2a
2f
2f
=3
2.b-
4a
2g
1a
2g
=4
*M4/2
4f
4e
2f
1g
=5
2r}
{2g
2b-
2b-
=6
*M6/2
1a
2a
1g
2g
=7
*M4/2
2.f
4g
2.a
4g
=8
2f
4e
4d
2e
2r
=9
2r}
{2c
2f
2f
=10
1a
2g
2f
=11
1g
[2f
1f]}
==
!!!AGN: Romanze, Ballade, Lied
!! Melodie aus: Reutterliedlein 1535 No.10. Ganz gleichlautend bei J.Ott
!!    1534 No.62 und Forster II. 1540 No.23.
!!!ONB: ESAC (Essen Associative Code) Database: ALTDEU
!!!AMT: irregular
!!!AIN: vox
!!!EED: Helmut Schaffrath
!!!EEV: 1.0
*-
